X: 17804
T: Hooversville
R: reel
M: 4/4
K: Dmajor
A3B FA~A2|FEDE FB~B2|ADBD FA~A2|GFEG FDDB|
~A3B FA~A2|FEDE FABc|dcBA FB~B2|1 AFEA FDDB:|2 AFEA FDD2||
|:efed BA~A2|FABc dB~B2|efed BA~A2|Begf ~e3g|
f2ed BA~A2|FEDE FABc|dcBA FB~B2|1 AFEA FDD2:|2 AFEA FDDB||

